svg/new/logo.svg

<?xml version="1.0" encoding="UTF-8"?>
<svg viewBox="0 0 1163 245" version="1.1" xmlns="http://www.w3.org/2000/svg" xmlns:xlink="http://www.w3.org/1999/xlink">
    <!-- Generator: Sketch 51.2 (57519) - http://www.bohemiancoding.com/sketch -->
    <title>logo-full</title>
    <desc>Created with Sketch.</desc>
    <defs></defs>
    <g id="logo-full" stroke="none" stroke-width="1" fill="none" fill-rule="evenodd">
        <path d="M77.149,130.516 C77.149,145.389 77.566,159.289 67.141,169.714 C59.913,176.942 51.573,180.834 39.48,180.834 C27.387,180.834 19.047,176.942 11.819,169.714 C1.394,159.289 1.811,145.389 1.811,130.516 C1.811,115.643 1.394,101.743 11.819,91.318 C19.047,84.09 27.387,80.198 39.48,80.198 C51.573,80.198 59.913,84.09 67.141,91.318 C77.566,101.743 77.149,115.643 77.149,130.516 Z M52.824,130.516 C52.824,112.446 51.434,109.11 49.21,106.191 C47.403,103.828 43.928,101.882 39.48,101.882 C35.032,101.882 31.557,103.828 29.75,106.191 C27.526,109.11 26.136,112.446 26.136,130.516 C26.136,148.586 27.526,151.783 29.75,154.702 C31.557,157.065 35.032,159.15 39.48,159.15 C43.928,159.15 47.403,157.065 49.21,154.702 C51.434,151.783 52.824,148.586 52.824,130.516 Z M187.36,145.25 C187.36,166.934 170.263,180.834 149.691,180.834 C129.119,180.834 112.3,166.934 112.3,145.25 L112.3,81.032 L136.625,81.032 L136.625,144.694 C136.625,153.868 141.629,159.15 149.691,159.15 C157.753,159.15 163.035,153.868 163.035,144.694 L163.035,81.032 L187.36,81.032 L187.36,145.25 Z M292.845,102.716 L268.52,102.716 L268.52,180 L244.195,180 L244.195,102.716 L219.87,102.716 L219.87,81.032 L292.845,81.032 L292.845,102.716 Z M394.299,180 L327.023,180 L327.023,81.032 L394.299,81.032 L394.299,102.716 L351.348,102.716 L351.348,119.257 L388.044,119.257 L388.044,140.941 L351.348,140.941 L351.348,158.316 L394.299,158.316 L394.299,180 Z M509.792,180 L481.575,180 L464.061,143.165 L455.86,143.165 L455.86,180 L431.535,180 L431.535,81.032 L470.733,81.032 C492.695,81.032 504.51,96.6 504.51,112.863 C504.51,126.346 496.17,134.825 488.386,138.717 L509.792,180 Z M480.185,112.863 C480.185,107.72 476.293,102.855 469.621,102.855 L455.86,102.855 L455.86,122.871 L469.621,122.871 C476.293,122.871 480.185,118.006 480.185,112.863 Z M837.891,180 L813.566,180 L813.566,132.601 L799.527,157.065 L783.959,157.065 L769.92,132.601 L769.92,180 L745.595,180 L745.595,81.032 L769.503,81.032 L791.743,124.678 L813.983,81.032 L837.891,81.032 L837.891,180 Z M958.666,180 L933.229,180 L928.642,165.266 L898.201,165.266 L893.336,180 L867.899,180 L903.9,81.032 L922.665,81.032 L958.666,180 Z M922.248,144.972 L913.908,118.562 L905.012,144.972 L922.248,144.972 Z M1061.649,112.863 C1061.649,129.126 1049.834,144.694 1027.872,144.694 L1012.999,144.694 L1012.999,180 L988.674,180 L988.674,81.032 L1027.872,81.032 C1049.834,81.032 1061.649,96.6 1061.649,112.863 Z M1037.324,112.863 C1037.324,107.72 1033.432,102.855 1026.76,102.855 L1012.999,102.855 L1012.999,122.871 L1026.76,122.871 C1033.432,122.871 1037.324,118.006 1037.324,112.863 Z M1162.269,149.698 C1162.269,169.853 1144.894,180.834 1124.044,180.834 C1108.893,180.834 1096.522,178.054 1086.514,167.768 L1102.082,152.2 C1107.225,157.343 1116.26,159.15 1124.183,159.15 C1133.774,159.15 1138.361,155.953 1138.361,150.254 C1138.361,147.891 1137.805,145.945 1136.415,144.416 C1135.164,143.165 1133.079,142.192 1129.882,141.775 L1117.928,140.107 C1109.171,138.856 1102.499,135.937 1098.051,131.35 C1093.464,126.624 1091.24,119.952 1091.24,111.473 C1091.24,93.403 1104.862,80.198 1127.38,80.198 C1141.558,80.198 1152.261,83.534 1160.74,92.013 L1145.45,107.303 C1139.195,101.048 1130.994,101.465 1126.685,101.465 C1118.206,101.465 1114.731,106.33 1114.731,110.639 C1114.731,111.89 1115.148,113.697 1116.677,115.226 C1117.928,116.477 1120.013,117.728 1123.488,118.145 L1135.442,119.813 C1144.338,121.064 1150.732,123.844 1154.902,128.014 C1160.184,133.157 1162.269,140.524 1162.269,149.698 Z" id="OUTER-MAPS" fill="#5800EC"></path>
        <g id="Group-37-Copy" transform="translate(555.000000, 9.000000)">
            <path d="M112.297324,205.650762 C100.363281,205.53418 111.100281,148.85584 89.1986912,148.85584 C71.5939196,148.85584 80.750449,189.719121 68.4301365,189.94959 C56.109824,190.180059 62.7133181,173.248418 55.766074,175.490606 C49.8027342,177.415243 50.6303318,210.541387 42.7846287,210.291387 C34.9389256,210.041387 31.6996678,157.726934 23.8149021,157.726934 C11.96041,157.726934 20.0756443,178.491582 10.1078709,178.491582 C0.140097456,178.491582 9.84537151e-13,162.171245 0,120.663575 C0,116.400513 0.996753612,104.64335 4.8367176,93.9020438 C19.6117771,52.5726371 30.0131443,19.5365043 45.3637303,19.001348 C51.462187,18.788742 70.7423236,43.7944393 71.5939196,44.9256644 C72.3886326,45.9813285 85.4525975,35.051641 89.1986912,35.1497855 C95.1879963,35.3067003 123.295702,77.7308402 123.295702,96.0275071 C123.295702,104.035708 125.682926,113.745278 125.682926,122.000669 C125.682926,135.366464 125.682926,148.568867 125.682926,157.726934 C125.682926,197.9867 124.231367,205.767344 112.297324,205.650762 Z" id="Stroke-1-Copy-6" fill="#5800EC"></path>
            <path d="M134.901769,5.51413732 C129.599472,7.72961777 125.326628,11.6521084 123.480033,17.2224107 C122.364482,20.5874985 121.034761,23.9843201 121.034761,27.7575515 C121.034761,32.8525479 121.157083,37.7414541 124.30521,42.3630395 C128.294826,46.9129023 131.606189,50.1746003 136.512616,50.7845202 C139.587035,51.1667025 142.675634,52.1365711 145.987746,52.1415929 C142.868717,53.5081763 139.410326,54.2683369 135.770058,54.2683369 C128.028401,54.2683369 121.936486,51.224012 116.610233,45.7902276 C113.071982,40.6762581 110.791264,35.7938886 110.791264,29.8842761 C110.791264,26.1594606 112.099469,23.3313356 113.176544,19.4720772 C118.557189,11.1968498 125.377971,5.821514 134.901769,5.51413732 Z" id="Combined-Shape-Copy-8" fill="#5800EC" transform="translate(128.389505, 29.891237) scale(-1, 1) rotate(-318.000000) translate(-128.389505, -29.891237) "></path>
            <path d="M25.7680895,56.3392227 C22.8266832,61.4534805 28.9336168,69.3939102 33.9360582,65.5843399 C38.9384997,61.7747696 39.0089075,73.0302221 51.7109661,73.6697891 C58.9355754,74.0335587 64.4352962,61.8557875 66.4336223,60.2557266 C71.9075531,55.872747 75.7856011,69.2607569 82.6621379,67.6961563 C87.1091222,66.6843455 84.1878965,59.4987815 86.4150676,57.6014298 C89.7749309,54.7391251 93.1348077,59.7439 98.18997,61.4534805 C99.2973864,61.8279923 102.192894,61.7938126 99.5603258,58.134877 C98.9886104,57.3402652 90.3674134,44.6914681 87.647484,45.1194962 C83.3593981,45.7943009 74.7422106,54.7676895 71.4653551,54.6673477 C68.2661688,54.5693843 49.494652,26.9549454 44.0595934,28.030629 C42.5630296,28.3268225 41.389677,28.4363907 37.732445,32.8631485 C34.7314676,36.4955678 30.7433491,44.3209258 25.7680895,56.3392227 Z" id="Path-7-Copy-4" fill="#FFFFFF"></path>
            <circle id="Oval-3-Copy-4" fill="#5800EC" cx="43" cy="222" r="5"></circle>
        </g>
    </g>
</svg>

<svg viewBox="0 0 1163 245" xmlns="http://www.w3.org/2000/svg"><title>logo-full</title><g fill="none" fill-rule="evenodd"><path d="M77.149 130.516c0 14.873.417 28.773-10.008 39.198-7.228 7.228-15.568 11.12-27.661 11.12-12.093 0-20.433-3.892-27.661-11.12-10.425-10.425-10.008-24.325-10.008-39.198 0-14.873-.417-28.773 10.008-39.198 7.228-7.228 15.568-11.12 27.661-11.12 12.093 0 20.433 3.892 27.661 11.12 10.425 10.425 10.008 24.325 10.008 39.198zm-24.325 0c0-18.07-1.39-21.406-3.614-24.325-1.807-2.363-5.282-4.309-9.73-4.309s-7.923 1.946-9.73 4.309c-2.224 2.919-3.614 6.255-3.614 24.325s1.39 21.267 3.614 24.186c1.807 2.363 5.282 4.448 9.73 4.448s7.923-2.085 9.73-4.448c2.224-2.919 3.614-6.116 3.614-24.186zM187.36 145.25c0 21.684-17.097 35.584-37.669 35.584-20.572 0-37.391-13.9-37.391-35.584V81.032h24.325v63.662c0 9.174 5.004 14.456 13.066 14.456 8.062 0 13.344-5.282 13.344-14.456V81.032h24.325v64.218zm105.485-42.534H268.52V180h-24.325v-77.284H219.87V81.032h72.975v21.684zM394.299 180h-67.276V81.032h67.276v21.684h-42.951v16.541h36.696v21.684h-36.696v17.375h42.951V180zm115.493 0h-28.217l-17.514-36.835h-8.201V180h-24.325V81.032h39.198c21.962 0 33.777 15.568 33.777 31.831 0 13.483-8.34 21.962-16.124 25.854L509.792 180zm-29.607-67.137c0-5.143-3.892-10.008-10.564-10.008H455.86v20.016h13.761c6.672 0 10.564-4.865 10.564-10.008zM837.891 180h-24.325v-47.399l-14.039 24.464h-15.568l-14.039-24.464V180h-24.325V81.032h23.908l22.24 43.646 22.24-43.646h23.908V180zm120.775 0h-25.437l-4.587-14.734h-30.441L893.336 180h-25.437L903.9 81.032h18.765L958.666 180zm-36.418-35.028l-8.34-26.41-8.896 26.41h17.236zm139.401-32.109c0 16.263-11.815 31.831-33.777 31.831h-14.873V180h-24.325V81.032h39.198c21.962 0 33.777 15.568 33.777 31.831zm-24.325 0c0-5.143-3.892-10.008-10.564-10.008h-13.761v20.016h13.761c6.672 0 10.564-4.865 10.564-10.008zm124.945 36.835c0 20.155-17.375 31.136-38.225 31.136-15.151 0-27.522-2.78-37.53-13.066l15.568-15.568c5.143 5.143 14.178 6.95 22.101 6.95 9.591 0 14.178-3.197 14.178-8.896 0-2.363-.556-4.309-1.946-5.838-1.251-1.251-3.336-2.224-6.533-2.641l-11.954-1.668c-8.757-1.251-15.429-4.17-19.877-8.757-4.587-4.726-6.811-11.398-6.811-19.877 0-18.07 13.622-31.275 36.14-31.275 14.178 0 24.881 3.336 33.36 11.815l-15.29 15.29c-6.255-6.255-14.456-5.838-18.765-5.838-8.479 0-11.954 4.865-11.954 9.174 0 1.251.417 3.058 1.946 4.587 1.251 1.251 3.336 2.502 6.811 2.919l11.954 1.668c8.896 1.251 15.29 4.031 19.46 8.201 5.282 5.143 7.367 12.51 7.367 21.684z" fill="#5800EC"/><g transform="translate(555 9)"><path d="M112.297 205.65c-11.934-.116-1.197-56.794-23.098-56.794-17.605 0-8.449 40.863-20.769 41.094-12.32.23-5.717-16.702-12.664-14.46-5.963 1.925-5.136 35.051-12.981 34.801-7.846-.25-11.085-52.564-18.97-52.564-11.855 0-3.74 20.765-13.707 20.765C.14 178.492 0 162.172 0 120.664c0-4.263.997-16.02 4.837-26.762 14.775-41.33 25.176-74.365 40.527-74.9 6.098-.213 25.378 24.792 26.23 25.924.795 1.055 13.859-9.874 17.605-9.776 5.989.157 34.097 42.58 34.097 60.878 0 8.008 2.387 17.717 2.387 25.973v35.726c0 40.26-1.452 48.04-13.386 47.924zm-5.059-189.517c5.423-1.901 11.223-1.846 16.323 1.058 3.08 1.755 6.342 3.39 8.866 6.193 3.41 3.787 6.59 7.502 7.343 13.043.08 6.05-.199 10.69-3.437 14.426-2.029 2.342-3.675 5.129-6.133 7.349a25.406 25.406 0 0 0 9.016-5.256c5.753-5.18 8.243-11.52 8.566-19.121-.793-6.168-2.365-11.323-6.32-15.714-2.491-2.769-5.356-3.995-8.739-6.142-9.536-2.55-18.201-1.98-25.485 4.164z" fill="#5800EC"/><path d="M25.768 56.34c-2.941 5.113 3.166 13.054 8.168 9.244 5.002-3.81 5.073 7.446 17.775 8.086 7.225.364 12.724-11.814 14.723-13.414 5.474-4.383 9.352 9.005 16.228 7.44 4.447-1.012 1.526-8.197 3.753-10.095 3.36-2.862 6.72 2.143 11.775 3.852 1.107.375 4.003.34 1.37-3.318-.571-.795-9.193-13.444-11.913-13.016-4.288.675-12.905 9.649-16.182 9.548-3.199-.098-21.97-27.712-27.405-26.636-1.497.296-2.67.405-6.328 4.832-3 3.633-6.989 11.458-11.964 23.476z" fill="#FFF"/><circle fill="#5800EC" cx="43" cy="222" r="5"/></g></g></svg>
